packages/core/src/svgs/rite.svg

<svg width="24" height="24" viewBox="0 0 24 24" fill="none" xmlns="http://www.w3.org/2000/svg">
<g clip-path="url(#clip0_31_17353)">
<path d="M0 0H24V24H0V0Z" fill="#30157E"/>
<path d="M15.8357 15.2999L15.6086 15.0642C16.1301 14.4365 16.481 13.6849 16.6275 12.8821C16.774 12.0793 16.7111 11.2522 16.4449 10.4808C16.1787 9.70934 15.7182 9.01951 15.1078 8.47786C14.4974 7.93621 13.7577 7.56101 12.96 7.38848C12.0632 7.19888 11.1306 7.27509 10.2764 7.60776C9.42229 7.94043 8.68379 8.51511 8.15146 9.26133C7.75281 9.81963 7.47998 10.4577 7.35177 11.1317C7.22357 11.8056 7.24304 12.4993 7.40885 13.165C7.57466 13.8306 7.88285 14.4524 8.31219 14.9875C8.74153 15.5225 9.2818 15.9581 9.89574 16.2642C10.7161 16.6718 11.6375 16.8313 12.5472 16.7232C13.4568 16.6151 14.3152 16.2441 15.0172 15.6556L15.2229 15.857L16.5386 17.177L17.1257 16.5899L15.8357 15.2956V15.2999ZM14.7386 14.7856C14.2634 15.2632 13.6722 15.6092 13.023 15.7894C12.3738 15.9697 11.6889 15.9781 11.0355 15.8139C10.3821 15.6497 9.78256 15.3184 9.29574 14.8527C8.80892 14.3869 8.45152 13.8026 8.2586 13.157C7.9983 12.2932 8.04421 11.3659 8.38857 10.5319C8.73293 9.69798 9.35462 9.00846 10.1486 8.57991C10.742 8.25895 11.4088 8.09814 12.0833 8.11334C12.7578 8.12854 13.4167 8.31921 13.995 8.66657C14.5734 9.01393 15.0512 9.50599 15.3815 10.0943C15.7118 10.6825 15.8831 11.3467 15.8786 12.0213C15.8786 13.0585 15.4715 14.0528 14.7386 14.7856Z" fill="url(#paint0_linear_31_17353)"/>
<path style="mix-blend-mode:multiply" d="M17.1557 16.5599L16.5643 17.1513L15.2443 15.8313L15.8614 15.2656L17.1557 16.5599Z" fill="url(#paint1_linear_31_17353)"/>
<path d="M15.9257 5.85007C14.5235 4.96086 12.861 4.57413 11.2104 4.75321C9.55971 4.93229 8.0188 5.66657 6.83997 6.83578C5.60567 8.08086 4.85862 9.72717 4.73438 11.476C4.61014 13.2248 5.11694 14.9601 6.16283 16.3672L6.82711 15.8658C6.64695 15.626 6.4837 15.374 6.33854 15.1115C5.8089 14.1257 5.54303 13.0197 5.56674 11.9009C5.59045 10.7821 5.90292 9.68841 6.47385 8.72594C7.04478 7.76347 7.85478 6.96489 8.82527 6.4077C9.79576 5.8505 10.8938 5.55359 12.0128 5.54578C13.1914 5.54578 14.37 5.86293 15.3985 6.50578C15.2705 6.79826 15.2338 7.12257 15.2931 7.43627C15.3525 7.74997 15.5051 8.03845 15.7311 8.26397C15.9571 8.48949 16.2459 8.64154 16.5597 8.70024C16.8735 8.75893 17.1978 8.72153 17.49 8.59293C17.3871 8.43007 17.28 8.2715 17.1643 8.1215L17.8285 7.62007C17.94 7.76578 18.0428 7.91578 18.1414 8.07007C18.3704 7.76471 18.4816 7.38698 18.4546 7.00623C18.4275 6.62549 18.264 6.26728 17.9941 5.99737C17.7242 5.72747 17.366 5.56398 16.9852 5.53692C16.6045 5.50986 16.2268 5.62105 15.9214 5.85007H15.9257ZM17.3957 7.66721C17.3267 7.74348 17.243 7.80493 17.1495 7.84783C17.0561 7.89073 16.9549 7.91418 16.8521 7.91677C16.7493 7.91935 16.6471 7.90101 16.5516 7.86285C16.4561 7.8247 16.3694 7.76753 16.2966 7.69482C16.2239 7.62212 16.1668 7.53539 16.1286 7.4399C16.0905 7.34442 16.0721 7.24217 16.0747 7.13938C16.0773 7.03659 16.1007 6.9354 16.1436 6.84195C16.1865 6.7485 16.248 6.66475 16.3243 6.59578C16.4686 6.46527 16.6576 6.39521 16.8521 6.4001C17.0466 6.40499 17.2318 6.48445 17.3694 6.62204C17.507 6.75964 17.5865 6.94485 17.5914 7.13938C17.5963 7.33391 17.5262 7.52288 17.3957 7.66721Z" fill="#01FDFE"/>
<path d="M17.1686 8.12155C18.1315 9.41022 18.5793 11.0117 18.4243 12.613C18.253 14.2015 17.5039 15.6717 16.3194 16.744C15.1349 17.8162 13.5977 18.4158 12 18.4287C10.8214 18.4287 9.65142 18.1458 8.59713 17.4858C8.75016 17.1336 8.77014 16.7377 8.65336 16.3719C8.53658 16.006 8.29098 15.6949 7.96218 15.4965C7.63338 15.298 7.24371 15.2256 6.86556 15.2927C6.48741 15.3598 6.14648 15.5619 5.90608 15.8615C5.66567 16.161 5.54215 16.5376 5.55843 16.9213C5.57472 17.305 5.72972 17.6698 5.99464 17.9478C6.25956 18.2259 6.61639 18.3984 6.99887 18.4332C7.38135 18.468 7.76347 18.3629 8.07427 18.1373C9.51347 19.0551 11.2291 19.4387 12.9221 19.2214C14.6152 19.0041 16.1783 18.1996 17.3391 16.9481C18.4998 15.6965 19.1846 14.0774 19.274 12.3728C19.3635 10.6682 18.8519 8.98626 17.8286 7.62012L17.1643 8.12155H17.1686ZM7.6757 17.3915C7.60535 17.4619 7.52183 17.5177 7.42991 17.5558C7.338 17.5938 7.23948 17.6134 7.13999 17.6134C7.0405 17.6134 6.94198 17.5938 6.85006 17.5558C6.75814 17.5177 6.67463 17.4619 6.60427 17.3915C6.53392 17.3212 6.47812 17.2377 6.44004 17.1458C6.40197 17.0538 6.38237 16.9553 6.38237 16.8558C6.38237 16.7563 6.40197 16.6578 6.44004 16.5659C6.47812 16.474 6.53392 16.3905 6.60427 16.3201C6.74635 16.178 6.93906 16.0982 7.13999 16.0982C7.34092 16.0982 7.53362 16.178 7.6757 16.3201C7.81778 16.4622 7.8976 16.6549 7.8976 16.8558C7.8976 17.0568 7.81778 17.2495 7.6757 17.3915Z" fill="#01FDFE"/>
<path d="M9.85718 10.0201C9.85718 9.91728 9.89146 9.81442 9.95146 9.72442C10.0072 9.6387 10.0929 9.56156 10.1915 9.51013C10.293 9.45685 10.4058 9.42831 10.5204 9.42682C10.6351 9.42533 10.7485 9.45094 10.8515 9.50156L11.3015 9.73728L11.9615 10.0801L14.67 11.4858C14.7686 11.5373 14.8543 11.6144 14.91 11.7001C14.9683 11.7893 14.9993 11.8936 14.9993 12.0001C14.9993 12.1067 14.9683 12.2109 14.91 12.3001C14.8543 12.3858 14.7686 12.463 14.67 12.5144L11.9615 13.9158L11.3015 14.2587L10.8515 14.4901C10.7829 14.5244 10.7143 14.5458 10.6372 14.5587L10.5215 14.5716C10.349 14.572 10.1819 14.5113 10.05 14.4001C9.98987 14.3448 9.94173 14.2777 9.90861 14.203C9.87528 14.1319 9.85773 14.0544 9.85718 13.9758V10.0201Z" fill="#01FDFE"/>
</g>
<defs>
<linearGradient id="paint0_linear_31_17353" x1="19.5343" y1="19.6585" x2="7.43574" y2="7.49133" gradientUnits="userSpaceOnUse">
<stop stop-color="#8E40A3"/>
<stop offset="0.65" stop-color="#30BEE0"/>
<stop offset="1" stop-color="#01FDFE"/>
</linearGradient>
<linearGradient id="paint1_linear_31_17353" x1="16.6628" y1="16.6156" x2="15.5914" y2="15.6471" gradientUnits="userSpaceOnUse">
<stop stop-color="#2284C6"/>
<stop offset="1" stop-color="#2284C6" stop-opacity="0"/>
</linearGradient>
<clipPath id="clip0_31_17353">
<rect width="24" height="24" fill="white"/>
</clipPath>
</defs>
</svg>

<svg xmlns="http://www.w3.org/2000/svg" width="24" height="24" fill="none" viewBox="0 0 24 24"><g clip-path="url(#a)"><path fill="#30157E" d="M0 0h24v24H0z"/><path fill="url(#b)" d="m15.836 15.3-.227-.236a4.75 4.75 0 0 0-2.649-7.676 4.71 4.71 0 0 0-4.809 1.873 4.744 4.744 0 0 0 1.745 7.003 4.71 4.71 0 0 0 5.121-.608l.206.201 1.316 1.32.587-.587-1.29-1.294zm-1.097-.514a3.887 3.887 0 0 1-6.48-1.629 3.92 3.92 0 0 1 1.89-4.577 3.883 3.883 0 0 1 5.73 3.441 3.9 3.9 0 0 1-1.14 2.765"/><path fill="url(#c)" d="m17.156 16.56-.592.591-1.32-1.32.617-.565z" style="mix-blend-mode:multiply"/><path fill="#01FDFE" d="M15.926 5.85a7.33 7.33 0 0 0-9.086.986 7.33 7.33 0 0 0-.677 9.531l.664-.501a6.5 6.5 0 0 1-.488-.755 6.493 6.493 0 0 1 5.674-9.565c1.178 0 2.357.317 3.386.96a1.586 1.586 0 0 0 2.091 2.087 6 6 0 0 0-.326-.472l.664-.5q.167.217.313.45a1.586 1.586 0 0 0-2.22-2.22zm1.47 1.817A.759.759 0 1 1 16.27 6.65a.759.759 0 0 1 1.125 1.017"/><path fill="#01FDFE" d="M17.169 8.122a6.46 6.46 0 0 1 1.255 4.491A6.514 6.514 0 0 1 12 18.429c-1.179 0-2.349-.283-3.403-.943a1.586 1.586 0 1 0-.523.651A7.29 7.29 0 0 0 17.83 7.62l-.665.502zm-9.493 9.27a.757.757 0 1 1-1.072-1.071.757.757 0 0 1 1.072 1.07"/><path fill="#01FDFE" d="M9.857 10.02c0-.103.034-.206.094-.296a.65.65 0 0 1 .24-.214.73.73 0 0 1 .66-.008l.45.235.66.343 2.709 1.406a.65.65 0 0 1 .24.214.55.55 0 0 1 0 .6.65.65 0 0 1-.24.214l-2.709 1.402-.66.343-.45.231a.7.7 0 0 1-.214.069l-.116.013a.73.73 0 0 1-.471-.172.6.6 0 0 1-.193-.424z"/></g><defs><linearGradient id="b" x1="19.534" x2="7.436" y1="19.659" y2="7.491" gradientUnits="userSpaceOnUse"><stop stop-color="#8E40A3"/><stop offset=".65" stop-color="#30BEE0"/><stop offset="1" stop-color="#01FDFE"/></linearGradient><linearGradient id="c" x1="16.663" x2="15.591" y1="16.616" y2="15.647" gradientUnits="userSpaceOnUse"><stop stop-color="#2284C6"/><stop offset="1" stop-color="#2284C6" stop-opacity="0"/></linearGradient><clipPath id="a"><path fill="#fff" d="M0 0h24v24H0z"/></clipPath></defs></svg>
